X:1
T: Wasting My Hate
C: Metallica
Z: arae69
M: 4/4
L: 1/8
Q:1/4=166
K:C
V:1
z8|E,2 E,2 A,B, DE-|E2 E2 ED B,D-|D2 D2 A,B, DA,-|
A,2 A,E, G,A, B,E,-|E,2 E,2 A,B, DE-|E2 E2 ED B,D-|D2 D2 A,B, DA,-|
A,2 A,E, A,G,2E,-|E,2 E,2 gB, De-|e2 E2 gD B,^f-|^f2 ^f^f ^fA AA-|
Ae de dA, B,E,-|E,2 E,2 ge De-|e2 Ee Ee B,d-|d2 Dd ^f^f De-|
ee A,d G,d B,e-|e2 z3A, DE-|EA, DE2A, DE-|EA, DE2A, DE|
E,2 EE, E^D E,=D|E,E, B,B, B,^A, E,=A,|A,A, A,E, A,^G, E,D-|DA, A,E, =G,A, A,E,-|
E,E, EE, E^D E,=D|E,E, B,B, B,^A, E,=A,|E,E, A,E, A,^G, E,=G,-|G,E EE, G,A, A,E,-|
E,E, EE, E^D E,=D|E,E, B,B, B,^A, E,=A,|A,A, A,E, A,^G, E,=G,-|G,A, A,E, G,A, A,E,-|
E,E, EE, E^D E,=D|E,E, B,B, B,^A, E,=A,|A,A, A,E, A,^G, E,=G,-|G,A, A,E, G,A, A,E,|
E2 Ee ee E=f|Ff Ff e2 FF|E2 Ee ee Ef|Ff Fd Ff Ff|
e2 Ee ee Ef|Ff Fe Fd DE-|EA, BA BA, DE-|EA, DE2A, DE|
E2 Ee ee Ef|Ff Ff e2 FF|D2 Dd dd De|A,e A,e A,f A,f|
e2 EB ee Ef|Ff Fe F^g D^g-|^ge DE2A, DE-|EA, DE =gA, gE|
E,2 E,2 A,B, DE-|E2 E2 ED B,D-|D2 D2 A,B, DA,-|A,2 A,E, G,A, B,E,-|
E,2 E,2 gB, De-|e2 E2 gD B,^f-|^f2 ^f^f ^fA AA-|Ae de G,A, B,E,-|
E,2 E,2 ge De-|e2 E^f Ee ^f^f-|^f2 D^f ^fg D^f-|^fe A,d G,d B,e-|
e4 z4|ed2B AG3|B4 E4-|E4 z2 e2|
E,2 EE, E^D E,=D|E,E, B,B, B,^A, E,=A,|A,A, A,E, A,^G, E,=G,-|G,A, A,E, G,A, A,E,-|
E,E, EE, E^D E,=D|E,E, B,B, B,^A, E,=A,|E,E, A,E, A,^G, E,=G,-|G,A, A,E, G,A, A,E,|
La Bamba! oh this brings back memories!
